small/extra/apps/standard/wps-office-etmain.svg

<?xml version="1.0" encoding="UTF-8" standalone="no"?>
<svg
   xmlns:dc="http://purl.org/dc/elements/1.1/"
   xmlns:cc="http://creativecommons.org/ns#"
   xmlns:rdf="http://www.w3.org/1999/02/22-rdf-syntax-ns#"
   xmlns:svg="http://www.w3.org/2000/svg"
   xmlns="http://www.w3.org/2000/svg"
   xmlns:sodipodi="http://sodipodi.sourceforge.net/DTD/sodipodi-0.dtd"
   xmlns:inkscape="http://www.inkscape.org/namespaces/inkscape"
   viewBox="0 0 512 512"
   id="svg2"
   version="1.1"
   inkscape:version="0.91+devel r13804 custom"
   sodipodi:docname="wps-office-etmain.svg">
  <metadata
     id="metadata472">
    <rdf:RDF>
      <cc:Work
         rdf:about="">
        <dc:format>image/svg+xml</dc:format>
        <dc:type
           rdf:resource="http://purl.org/dc/dcmitype/StillImage" />
        <dc:title></dc:title>
      </cc:Work>
    </rdf:RDF>
  </metadata>
  <sodipodi:namedview
     pagecolor="#ffffff"
     bordercolor="#666666"
     borderopacity="1"
     objecttolerance="10"
     gridtolerance="10"
     guidetolerance="10"
     inkscape:pageopacity="0"
     inkscape:pageshadow="2"
     inkscape:window-width="1366"
     inkscape:window-height="709"
     id="namedview470"
     showgrid="false"
     inkscape:zoom="0.4609375"
     inkscape:cx="683.38983"
     inkscape:cy="174.88241"
     inkscape:window-x="-2"
     inkscape:window-y="-3"
     inkscape:window-maximized="1"
     inkscape:current-layer="svg2" />
  <defs
     id="defs4" />
  <path
     inkscape:connector-curvature="0"
     d="M 26,0 C 11.603,0 0,11.603 0,26 l 0,460 c 0,14.397 11.603,26 26,26 l 460,0 c 14.397,0 26,-11.603 26,-26 L 512,26 C 512,11.603 500.397,0 486,0 L 26,0"
     style="fill:#49a026"
     id="path379932" />
  <text
     sodipodi:linespacing="125%"
     y="138.00999"
     x="-1863.37"
     line-height="125%"
     style="font-size:208.33000183px;line-height:125%;font-family:'Gentium Book Basic';letter-spacing:0;word-spacing:0"
     id="text379934">
    <tspan
       y="138.00999"
       x="-1863.37"
       id="tspan379936" />
  </text>
  <text
     transform="scale(4.0128205,0.24920128)"
     y="-9.069953"
     x="-146.62926"
     style="font-size:75.69999695px;font-family:Arial;text-anchor:middle"
     id="text379938" />
  <text
     sodipodi:linespacing="125%"
     y="-180.14999"
     x="26.749001"
     line-height="125%"
     style="font-size:129.22999573px;line-height:125%;font-family:'Gentium Book Basic';letter-spacing:0;word-spacing:0"
     id="text379940">
    <tspan
       y="-180.14999"
       x="26.749001"
       id="tspan379942" />
  </text>
  <text
     transform="scale(4.0128205,0.24920128)"
     y="-1072.0446"
     x="203.74896"
     style="font-size:46.95399857px;font-family:Arial;text-anchor:middle"
     id="text379944" />
  <text
     sodipodi:linespacing="125%"
     y="-260.14999"
     x="608.02002"
     line-height="125%"
     style="font-size:129.22999573px;line-height:125%;font-family:'Gentium Book Basic';letter-spacing:0;word-spacing:0"
     id="text379946">
    <tspan
       y="-260.14999"
       x="608.02002"
       id="tspan379948" />
  </text>
  <text
     transform="scale(4.0128205,0.24920128)"
     y="-1393.0829"
     x="348.59824"
     style="font-size:46.95399857px;font-family:Arial;text-anchor:middle"
     id="text379950" />
  <text
     sodipodi:linespacing="125%"
     y="-441.41"
     x="-463.56"
     line-height="125%"
     style="font-size:129.22999573px;line-height:125%;font-family:'Gentium Book Basic';letter-spacing:0;word-spacing:0"
     id="text379952">
    <tspan
       y="-441.41"
       x="-463.56"
       id="tspan379954" />
  </text>
  <text
     transform="scale(4.0128205,0.24920128)"
     y="-2120.4292"
     x="81.559578"
     style="font-size:46.95399857px;font-family:Arial;text-anchor:middle"
     id="text379956" />
  <text
     sodipodi:linespacing="125%"
     y="-657.88"
     x="634.48999"
     line-height="125%"
     style="font-size:129.22999573px;line-height:125%;font-family:'Gentium Book Basic';letter-spacing:0;word-spacing:0"
     id="text379958">
    <tspan
       y="-657.88"
       x="634.48999"
       id="tspan379960" />
  </text>
  <text
     transform="scale(4.0128205,0.24920128)"
     y="-2989.0947"
     x="355.19818"
     style="font-size:46.95399857px;font-family:Arial;text-anchor:middle"
     id="text379962" />
  <text
     sodipodi:linespacing="125%"
     y="-737.88"
     x="1215.76"
     line-height="125%"
     style="font-size:129.22999573px;line-height:125%;font-family:'Gentium Book Basic';letter-spacing:0;word-spacing:0"
     id="text379964">
    <tspan
       y="-737.88"
       x="1215.76"
       id="tspan379966" />
  </text>
  <text
     transform="scale(4.0128205,0.24920128)"
     y="-3310.123"
     x="500.04742"
     style="font-size:46.95399857px;font-family:Arial;text-anchor:middle"
     id="text379968" />
  <text
     sodipodi:linespacing="125%"
     y="-1210.28"
     x="826.64001"
     line-height="125%"
     style="font-size:129.22999573px;line-height:125%;font-family:'Gentium Book Basic';letter-spacing:0;word-spacing:0"
     id="text379970">
    <tspan
       y="-1210.28"
       x="826.64001"
       id="tspan379972" />
  </text>
  <text
     transform="scale(4.0128205,0.24920128)"
     y="-5205.7632"
     x="403.07791"
     style="font-size:46.95399857px;font-family:Arial;text-anchor:middle"
     id="text379974" />
  <text
     sodipodi:linespacing="125%"
     y="-1290.29"
     x="1407.9"
     line-height="125%"
     style="font-size:129.22999573px;line-height:125%;font-family:'Gentium Book Basic';letter-spacing:0;word-spacing:0"
     id="text379976">
    <tspan
       y="-1290.29"
       x="1407.9"
       id="tspan379978" />
  </text>
  <text
     transform="scale(4.0128205,0.24920128)"
     y="-5526.8018"
     x="547.91718"
     style="font-size:46.95399857px;font-family:Arial;text-anchor:middle"
     id="text379980" />
  <text
     sodipodi:linespacing="125%"
     y="124.43"
     x="-424.89999"
     line-height="125%"
     style="font-size:208.33000183px;line-height:125%;font-family:'Gentium Book Basic';letter-spacing:0;word-spacing:0"
     id="text379982">
    <tspan
       y="124.43"
       x="-424.89999"
       id="tspan379984" />
  </text>
  <path
     style="fill-rule:evenodd;opacity:0.25"
     d="M 59.900391 41 L 59.90625 41.005859 L 59.90625 139.7207 L 59.9375 139.75195 L 59.9375 305.2793 L 126.9375 372.2793 L 59.910156 372.2793 L 158.63086 471 L 158.62695 471 L 59.90625 372.2793 L 59.90625 471 L 100.90625 512 L 486 512 C 500.397 512 512 500.397 512 486 L 512 100.91016 L 452.08984 41 L 59.90625 41 L 59.900391 41 z "
     id="path379988" />
  <path
     inkscape:connector-curvature="0"
     d="m 59.906,41 0,98.72 0.031,0 0,165.56 98.72,0 194.72,0 0,67 -293.47,0 0,98.72 392.19,0 0,-98.72 0,-165.75 -98.72,0 0,0.031 -194.72,0 0,-66.844 293.44,0 0,-98.72 -392.19,0"
     style="fill:#ffffff;fill-rule:evenodd"
     id="path380024" />
</svg>

<?xml version="1.0" encoding="UTF-8" standalone="no"?>
<!-- Created with Inkscape (http://www.inkscape.org/) -->

<svg
   xmlns:dc="http://purl.org/dc/elements/1.1/"
   xmlns:cc="http://creativecommons.org/ns#"
   xmlns:rdf="http://www.w3.org/1999/02/22-rdf-syntax-ns#"
   xmlns:svg="http://www.w3.org/2000/svg"
   xmlns="http://www.w3.org/2000/svg"
   xmlns:inkscape="http://www.inkscape.org/namespaces/inkscape"
   version="1.1"
   width="100%"
   height="100%"
   viewBox="0 0 512 512"
   id="svg2">
  <metadata
     id="metadata105">
    <rdf:RDF>
      <cc:Work
         rdf:about="">
        <dc:format>image/svg+xml</dc:format>
        <dc:type
           rdf:resource="http://purl.org/dc/dcmitype/StillImage" />
      </cc:Work>
    </rdf:RDF>
  </metadata>
  <defs
     id="defs4">
    <clipPath
       id="0">
      <path
         d="M 26,0 C 11.603,0 0,11.603 0,26 v 460 c 0,14.397 11.603,26 26,26 h 460 c 14.397,0 26,-11.603 26,-26 V 26 C 512,11.603 500.397,0 486,0 H 26"
         inkscape:connector-curvature="0"
         id="path7" />
    </clipPath>
  </defs>
  <path
     d="M 26,0 C 11.603,0 0,11.603 0,26 v 460 c 0,14.397 11.603,26 26,26 h 460 c 14.397,0 26,-11.603 26,-26 V 26 C 512,11.603 500.397,0 486,0 H 26"
     inkscape:connector-curvature="0"
     id="path9"
     style="fill:#49a026" />
  <text
     x="-1863.37"
     y="138.00999"
     id="text11"
     style="font-size:208.33000183px;line-height:125%;letter-spacing:0;word-spacing:0;font-family:Gentium Book Basic">
    <tspan
       x="-1863.37"
       y="138.00999"
       id="tspan13" />
  </text>
  <text
     x="-146.63"
     y="-9.0699997"
     transform="scale(4.0128,0.2492)"
     id="text15"
     style="font-size:75.69999695px;text-anchor:middle;font-family:Arial" />
  <text
     x="26.749001"
     y="-180.14999"
     id="text17"
     style="font-size:129.22999573px;line-height:125%;letter-spacing:0;word-spacing:0;font-family:Gentium Book Basic">
    <tspan
       x="26.749001"
       y="-180.14999"
       id="tspan19" />
  </text>
  <text
     x="203.75"
     y="-1072.05"
     transform="scale(4.0128,0.2492)"
     id="text21"
     style="font-size:46.95399857px;text-anchor:middle;font-family:Arial" />
  <text
     x="608.02002"
     y="-260.14999"
     id="text23"
     style="font-size:129.22999573px;line-height:125%;letter-spacing:0;word-spacing:0;font-family:Gentium Book Basic">
    <tspan
       x="608.02002"
       y="-260.14999"
       id="tspan25" />
  </text>
  <text
     x="348.60001"
     y="-1393.09"
     transform="scale(4.0128,0.2492)"
     id="text27"
     style="font-size:46.95399857px;text-anchor:middle;font-family:Arial" />
  <text
     x="-463.56"
     y="-441.41"
     id="text29"
     style="font-size:129.22999573px;line-height:125%;letter-spacing:0;word-spacing:0;font-family:Gentium Book Basic">
    <tspan
       x="-463.56"
       y="-441.41"
       id="tspan31" />
  </text>
  <text
     x="81.559998"
     y="-2120.4399"
     transform="scale(4.0128,0.2492)"
     id="text33"
     style="font-size:46.95399857px;text-anchor:middle;font-family:Arial" />
  <text
     x="634.48999"
     y="-657.88"
     id="text35"
     style="font-size:129.22999573px;line-height:125%;letter-spacing:0;word-spacing:0;font-family:Gentium Book Basic">
    <tspan
       x="634.48999"
       y="-657.88"
       id="tspan37" />
  </text>
  <text
     x="355.20001"
     y="-2989.1101"
     transform="scale(4.0128,0.2492)"
     id="text39"
     style="font-size:46.95399857px;text-anchor:middle;font-family:Arial" />
  <text
     x="1215.76"
     y="-737.88"
     id="text41"
     style="font-size:129.22999573px;line-height:125%;letter-spacing:0;word-spacing:0;font-family:Gentium Book Basic">
    <tspan
       x="1215.76"
       y="-737.88"
       id="tspan43" />
  </text>
  <text
     x="500.04999"
     y="-3310.1399"
     transform="scale(4.0128,0.2492)"
     id="text45"
     style="font-size:46.95399857px;text-anchor:middle;font-family:Arial" />
  <text
     x="826.64001"
     y="-1210.28"
     id="text47"
     style="font-size:129.22999573px;line-height:125%;letter-spacing:0;word-spacing:0;font-family:Gentium Book Basic">
    <tspan
       x="826.64001"
       y="-1210.28"
       id="tspan49" />
  </text>
  <text
     x="403.07999"
     y="-5205.79"
     transform="scale(4.0128,0.2492)"
     id="text51"
     style="font-size:46.95399857px;text-anchor:middle;font-family:Arial" />
  <text
     x="1407.9"
     y="-1290.29"
     id="text53"
     style="font-size:129.22999573px;line-height:125%;letter-spacing:0;word-spacing:0;font-family:Gentium Book Basic">
    <tspan
       x="1407.9"
       y="-1290.29"
       id="tspan55" />
  </text>
  <text
     x="547.91998"
     y="-5526.8301"
     transform="scale(4.0128,0.2492)"
     id="text57"
     style="font-size:46.95399857px;text-anchor:middle;font-family:Arial" />
  <text
     x="-424.89999"
     y="124.43"
     id="text59"
     style="font-size:208.33000183px;line-height:125%;letter-spacing:0;word-spacing:0;font-family:Gentium Book Basic">
    <tspan
       x="-424.89999"
       y="124.43"
       id="tspan61" />
  </text>
  <g
     clip-path="url(#0)"
     id="g63"
     style="opacity:0.25;fill-rule:evenodd">
    <path
       d="m 59.906,41 v 98.72 l 353.55,353.55 v -98.72 z"
       inkscape:connector-curvature="0"
       id="path65" />
    <path
       d="m 59.906,139.72 h 0.031 l 353.55,353.55 h -0.031 z"
       inkscape:connector-curvature="0"
       id="path67" />
    <path
       d="m 59.938,139.72 v 165.56 l 353.55,353.55 V 493.27 z"
       inkscape:connector-curvature="0"
       id="path69" />
    <path
       d="m 59.938,305.28 h 98.72 l 353.55,353.55 h -98.72 z"
       inkscape:connector-curvature="0"
       id="path71" />
    <path
       d="M 158.66,305.28 H 353.38 L 706.93,658.83 H 512.21 z"
       inkscape:connector-curvature="0"
       id="path73" />
    <path
       d="m 353.38,305.28 v 67 l 353.55,353.55 v -67 z"
       inkscape:connector-curvature="0"
       id="path75" />
    <path
       d="M 353.38,372.28 H 59.91 l 353.55,353.55 h 293.47 z"
       inkscape:connector-curvature="0"
       id="path77" />
    <path
       d="M 59.906,372.28 V 471 l 353.55,353.55 v -98.72 z"
       inkscape:connector-curvature="0"
       id="path79" />
    <path
       d="m 59.906,471 h 392.19 l 353.55,353.55 h -392.19 z"
       inkscape:connector-curvature="0"
       id="path81" />
    <path
       d="m 452.09,471 v -98.72 l 353.55,353.55 v 98.72 z"
       inkscape:connector-curvature="0"
       id="path83" />
    <path
       d="M 452.09,372.28 V 206.53 l 353.55,353.55 v 165.75 z"
       inkscape:connector-curvature="0"
       id="path85" />
    <path
       d="m 452.09,206.53 h -98.72 l 353.55,353.55 h 98.72 z"
       inkscape:connector-curvature="0"
       id="path87" />
    <path
       d="m 353.38,206.53 v 0.031 l 353.55,353.55 v -0.031 z"
       inkscape:connector-curvature="0"
       id="path89" />
    <path
       d="M 353.38,206.56 H 158.66 l 353.55,353.55 h 194.72 z"
       inkscape:connector-curvature="0"
       id="path91" />
    <path
       d="m 158.66,206.56 v -66.844 l 353.55,353.55 v 66.844 z"
       inkscape:connector-curvature="0"
       id="path93" />
    <path
       d="M 158.66,139.72 H 452.1 L 805.65,493.27 H 512.21 z"
       inkscape:connector-curvature="0"
       id="path95" />
    <path
       d="M 452.09,139.72 V 41 l 353.55,353.55 v 98.72 z"
       inkscape:connector-curvature="0"
       id="path97" />
    <path
       d="M 452.09,41 H 59.9 l 353.55,353.55 h 392.19 z"
       inkscape:connector-curvature="0"
       id="path99" />
  </g>
  <path
     d="m 59.906,41 v 98.72 h 0.031 v 165.56 h 98.72 194.72 v 67 H 59.907 V 471 h 392.19 V 372.28 206.53 h -98.72 v 0.031 h -194.72 v -66.844 h 293.44 V 40.997 H 59.907"
     inkscape:connector-curvature="0"
     id="path101"
     style="fill:#ffffff;fill-rule:evenodd" />
</svg>
